public/assets/svg/favicon.svg

<svg xmlns="http://www.w3.org/2000/svg" viewBox="0 0 32 32"><ellipse cx="16" cy="16" rx="15.978" ry="16" style="fill-rule:nonzero;stroke:#000;fill:#3e89b8;paint-order:stroke;stroke-width:0"/><path d="m26.487 4.908-.393-.024s-4.588-.344-8.236 3.302l-3.718 3.722-.744-.745-.747-.745-.743.745-.744.745L8.187 8.93l7.441-7.441L14.14 0 8.93 5.21l-.743-.745L0 12.651l1.487 1.489.746.742 1.163-1.161 1.906 4.046-2.326 2.327 1.488 1.489 1.79-1.791.465 1.024-1.51 1.509 1.488 1.489.977-.976.303.673.162.349.35.163.675.302-.977.977 1.487 1.489 1.511-1.511 1.023.465-1.79 1.791 1.488 1.488 2.327-2.326 4.045 1.909-1.162 1.16.742.745.746.743.744.745 8.186-8.186-.744-.743L32 17.86l-1.489-1.488-7.443 7.442-2.976-2.977.746-.743.744-.744-.744-.743-.746-.747 3.722-3.72c3.647-3.648 3.3-8.234 3.3-8.234l-.021-.395-.279-.278-.047-.047-.28-.278Zm-1.58 2.184c-.05 1.132-.31 3.29-2.581 5.559l-3.722 3.721-.746-.744 2.98-2.977-1.49-1.488-2.976 2.977-.744-.746 3.72-3.719c2.273-2.273 4.43-2.532 5.559-2.583Zm-12.258 6.302 5.955 5.956-2.976 2.975 1.488 1.489 1.488-1.489 2.978 2.977-1.72 1.721-10.143-4.744-4.742-10.14 1.72-1.721 2.977 2.976-1.487 1.488 1.487 1.49 2.975-2.978Zm0 1.488a3.166 3.166 0 0 0 0 4.468 3.161 3.161 0 0 0 4.467 0l-1.488-1.49a1.05 1.05 0 0 1-1.488 0 1.05 1.05 0 0 1 0-1.488l-1.491-1.49Z" style="text-indent:0;text-align:start;line-height:normal;text-transform:none;fill:#fff;transform-origin:17.116px 14.882px"/></svg>

<?xml version="1.0" encoding="utf-8"?>
<svg xmlns="http://www.w3.org/2000/svg" viewBox="0 0 32 32" xmlns:bx="https://boxy-svg.com">
  <defs>
    <bx:guide x="19.249" y="1.022" angle="90"/>
    <bx:guide x="1.063" y="19.086" angle="0"/>
    <bx:guide x="30.937" y="19.413" angle="0"/>
    <bx:guide x="24.725" y="30.937" angle="90"/>
  </defs>
  <ellipse style="fill-rule: nonzero; stroke: rgb(0, 0, 0); fill: rgb(62, 137, 184); paint-order: stroke; stroke-width: 0px;" cy="16" rx="15.978" ry="16" cx="16"/>
  <path style="text-indent: 0px; text-align: start; line-height: normal; text-transform: none; fill: rgb(255, 255, 255); transform-origin: 17.116px 14.882px;" d="M 26.487 4.908 L 26.094 4.884 C 26.094 4.884 21.506 4.54 17.858 8.186 L 14.14 11.908 L 13.396 11.163 L 12.649 10.418 L 11.906 11.163 L 11.162 11.908 L 8.187 8.93 L 15.628 1.489 L 14.14 0 L 8.93 5.21 L 8.187 4.465 L 0 12.651 L 1.487 14.14 L 2.233 14.882 L 3.396 13.721 L 5.302 17.767 L 2.976 20.094 L 4.464 21.583 L 6.254 19.792 L 6.719 20.816 L 5.209 22.325 L 6.697 23.814 L 7.674 22.838 L 7.977 23.511 L 8.139 23.86 L 8.489 24.023 L 9.164 24.325 L 8.187 25.302 L 9.674 26.791 L 11.185 25.28 L 12.208 25.745 L 10.418 27.536 L 11.906 29.024 L 14.233 26.698 L 18.278 28.607 L 17.116 29.767 L 17.858 30.512 L 18.604 31.255 L 19.348 32 L 27.534 23.814 L 26.79 23.071 L 32 17.86 L 30.511 16.372 L 23.068 23.814 L 20.092 20.837 L 20.838 20.094 L 21.582 19.35 L 20.838 18.607 L 20.092 17.86 L 23.814 14.14 C 27.461 10.492 27.114 5.906 27.114 5.906 L 27.093 5.511 L 26.814 5.233 L 26.767 5.186 L 26.487 4.908 Z M 24.907 7.092 C 24.857 8.224 24.597 10.382 22.326 12.651 L 18.604 16.372 L 17.858 15.628 L 20.838 12.651 L 19.348 11.163 L 16.372 14.14 L 15.628 13.394 L 19.348 9.675 C 21.621 7.402 23.778 7.143 24.907 7.092 Z M 12.649 13.394 L 18.604 19.35 L 15.628 22.325 L 17.116 23.814 L 18.604 22.325 L 21.582 25.302 L 19.862 27.023 L 9.719 22.279 L 4.977 12.139 L 6.697 10.418 L 9.674 13.394 L 8.187 14.882 L 9.674 16.372 L 12.649 13.394 Z M 12.649 14.882 C 11.419 16.117 11.419 18.114 12.649 19.35 C 13.883 20.582 15.882 20.582 17.116 19.35 L 15.628 17.86 C 15.216 18.272 14.55 18.272 14.14 17.86 C 13.728 17.451 13.728 16.785 14.14 16.372 L 12.649 14.882 Z"/>
</svg>
